X:136
T:Mickey Callaghan's Slide
R:slide
H:A version of "Patsy Geary's" #6
D:Mick O'Brien & Caoimh\'in \'O Raghallaigh: Kitty Lie Over
Z:id:hn-slide-136
M:6/8
L:1/8
K:D
~A3 DFA | BAF AFG | AdB AFA | d3 d2e |
~f3 g2f | e/f/ge d2B | AFF DFD | EFE EFG |
~A2B AFA | BAF AFG | AdB AFA | d3 d2e |
fef g2f | e/f/ge d2B | Aaa f2e | d3 d2e ||
|: f2e f2e | f2e fga | ~A3 BAF | ~A3 ABd |
~e3 e2e | efe efg | f/g/af gfe |1 d3 d2e :|2 dfe dcB || 

